packages/foundations/assets/icons/functional/images/editing/cross_16.svg

<svg width="16" height="16" viewBox="0 0 16 16" fill="none" xmlns="http://www.w3.org/2000/svg">
<g clip-path="url(#clip0_77_984)">
<path fill-rule="evenodd" clip-rule="evenodd" d="M3.2 11.9999C3.2 11.7749 3.275 11.5749 3.425 11.4249L6.85 7.99986L3.425 4.54986C3.35321 4.47746 3.29638 4.39162 3.25777 4.29725C3.21916 4.20288 3.19953 4.10182 3.2 3.99986C3.2 3.59986 3.525 3.19986 4 3.19986C4.2 3.19986 4.4 3.27486 4.55 3.42486L8 6.84986L11.45 3.42486C11.6 3.27486 11.8 3.19986 12 3.19986C12.425 3.19986 12.8 3.54986 12.8 3.99986C12.8 4.19986 12.725 4.39986 12.575 4.54986L9.15 7.99986L12.575 11.4249C12.725 11.5749 12.8 11.7749 12.8 11.9999C12.8 12.4249 12.45 12.7999 12 12.7999C11.894 12.8027 11.7885 12.7843 11.6897 12.7456C11.5909 12.707 11.5009 12.6489 11.425 12.5749L8 9.12486L4.575 12.5749C4.49908 12.6489 4.40907 12.707 4.3103 12.7456C4.21154 12.7843 4.10602 12.8027 4 12.7999C3.55 12.7999 3.2 12.4249 3.2 11.9999Z" fill="#1A1C1F"/>
</g>
<defs>
<clipPath id="clip0_77_984">
<rect width="16" height="16" fill="white"/>
</clipPath>
</defs>
</svg>

<svg xmlns="http://www.w3.org/2000/svg" width="16" height="16" fill="none"><g clip-path="url(#a)"><path fill="#1A1C1F" fill-rule="evenodd" d="M3.2 12c0-.225.075-.425.225-.575L6.85 8 3.425 4.55A.78.78 0 0 1 3.2 4c0-.4.325-.8.8-.8.2 0 .4.075.55.225L8 6.85l3.45-3.425c.15-.15.35-.225.55-.225.425 0 .8.35.8.8 0 .2-.075.4-.225.55L9.15 8l3.425 3.425c.15.15.225.35.225.575 0 .425-.35.8-.8.8a.8.8 0 0 1-.575-.225L8 9.125l-3.425 3.45A.8.8 0 0 1 4 12.8c-.45 0-.8-.375-.8-.8" clip-rule="evenodd"/></g><defs><clipPath id="a"><path fill="#fff" d="M0 0h16v16H0z"/></clipPath></defs></svg>
